build/img/icon-envelope.svg

<svg width="26" height="19" viewBox="0 0 26 19" fill="none" xmlns="http://www.w3.org/2000/svg">
<path d="M22.2407 0H3.09787C1.38906 0 0 1.34493 0 2.99946V15.6672C0 17.3217 1.38906 18.6667 3.09787 18.6667H22.2355C23.9443 18.6667 25.3333 17.3217 25.3333 15.6672V3.00453C25.3386 1.35001 23.9495 0 22.2407 0ZM23.9233 15.6672C23.9233 16.5655 23.1685 17.2964 22.2407 17.2964H3.09787C2.17008 17.2964 1.41527 16.5655 1.41527 15.6672V3.00453C1.41527 2.10622 2.17008 1.37539 3.09787 1.37539H22.2355C23.1632 1.37539 23.9181 2.10622 23.9181 3.00453V15.6672H23.9233Z" fill="#00B2FF"/>
<path d="M15.9768 9.17598L22.1725 3.79624C22.4608 3.54248 22.487 3.11108 22.2249 2.82687C21.9629 2.54773 21.5173 2.52236 21.2238 2.77612L12.6797 10.2012L11.0129 8.75981C11.0076 8.75473 11.0024 8.74966 11.0024 8.74458C10.9657 8.70905 10.929 8.6786 10.8871 8.64815L4.10425 2.77104C3.81071 2.51728 3.36517 2.54266 3.10308 2.82687C2.84099 3.11108 2.8672 3.54248 3.16074 3.79624L9.42986 9.22165L3.18695 14.8805C2.90389 15.1394 2.88817 15.5708 3.1555 15.8499C3.29702 15.992 3.48573 16.0681 3.67443 16.0681C3.84741 16.0681 4.02038 16.0072 4.15667 15.8854L10.4939 10.1453L12.2132 11.6324C12.3495 11.7491 12.5172 11.8049 12.685 11.8049C12.8527 11.8049 13.0257 11.744 13.1567 11.6273L14.9232 10.0946L21.2238 15.8905C21.3601 16.0174 21.5383 16.0783 21.7112 16.0783C21.9 16.0783 22.0834 16.0072 22.2249 15.8651C22.4923 15.5911 22.4818 15.1546 22.1987 14.8958L15.9768 9.17598Z" fill="#00B2FF"/>
</svg>

<svg width="26" height="19" fill="none" xmlns="http://www.w3.org/2000/svg"><path d="M22.24 0H3.099C1.389 0 0 1.345 0 3v12.667c0 1.655 1.39 3 3.098 3h19.137c1.71 0 3.098-1.345 3.098-3V3.005C25.34 1.35 23.95 0 22.241 0zm1.683 15.667c0 .899-.754 1.63-1.682 1.63H3.098c-.928 0-1.683-.732-1.683-1.63V3.005c0-.899.755-1.63 1.683-1.63h19.137c.928 0 1.683.731 1.683 1.63v12.662h.005z" fill="#00B2FF"/><path d="M15.977 9.176l6.195-5.38a.673.673 0 00.053-.97.728.728 0 00-1.001-.05l-8.544 7.425-1.667-1.441c-.005-.005-.01-.01-.01-.015a1.043 1.043 0 00-.116-.097L4.104 2.771a.723.723 0 00-1 .056.67.67 0 00.057.97L9.43 9.221 3.187 14.88a.673.673 0 00-.031.969.722.722 0 001.001.036l6.337-5.74 1.72 1.486a.72.72 0 00.943-.005l1.766-1.532 6.3 5.795a.716.716 0 00.488.188.718.718 0 00.514-.213.672.672 0 00-.026-.97l-6.222-5.719z" fill="#00B2FF"/></svg>
